src/images/check.svg

<svg fill="none" height="18" viewBox="0 0 24 18" width="24" xmlns="http://www.w3.org/2000/svg"><path d="m8.3705 17.4106c-.66964 0-1.33928-.1674-1.84151-.6696l-6.52899-6.6964 3.51561-3.51561 4.85489 4.85491 11.3839-11.3839 3.5156 3.51561-13.058 13.05799c-.50222.5022-1.17186.837-1.8415.837z" fill="#00b242"/></svg>

<svg width="24" height="18" viewBox="0 0 24 18" fill="none" xmlns="http://www.w3.org/2000/svg">
<path d="M8.3705 17.4106C7.70086 17.4106 7.03122 17.2432 6.52899 16.741L0 10.0446L3.51561 6.52899L8.3705 11.3839L19.7544 0L23.27 3.51561L10.212 16.5736C9.70978 17.0758 9.04014 17.4106 8.3705 17.4106Z" fill="#00B242"/>
</svg>
